X:1
T:Go Tell the Glad Tidings
T:Go Tell the Glad Tidings
T:William Augustine Ogden
T:Isaac G. Mitchell, 1894
T:Public Domain Courtesy of the Cyber Hymnal™
C:William Augustine Ogden
Z:Public Domain
Z:Courtesy of the Cyber Hymnal™
%%score ( 1 2 ) ( 3 4 )
L:1/8
Q:1/4=87
M:6/8
K:G
V:1 treble 
V:2 treble 
V:3 bass 
V:4 bass 
V:1
 D | [DG]>[DG][DG] [DG]D[DG] | [GB][GB][DA] [DG]2 [DG] | [GB]>[GB][GB] [GB][Gc][GB] | %4
w: 1.~Go|tell the glad tid- ings of|Je- sus, so sweet, Of|Je- sus who came from a-|
w: 2.~Go|tell the glad tid- ings of|Je- sus, so sweet, Till|all of His mer- cy shall|
w: 3.~Go|tell the glad tid- ings of|mer- cy and love, To|lost ones wher- e’er they may|
 [FA]3- [FA]2 D | [DA]>[EA][FA] [FA][FB][Fc] | [Dc][DB][DA] [DB]2 [DG] | %7
w: bove; * The|mes- sage of mer- cy to|sin- ners re- peat, The|
w: know; * And|come with re- joic- ing to|bow at His feet, Re-|
w: be; * That|souls may be won for the|king- dom a- bove, And|
 [CE][Ec][EA] [DG][DG][DF] | [DG]3- [DG]2 ||"^Refrain" [GB] | [Gd]>[Gd][Gd] [Gd][GB][Ge] | %11
w: sto- ry of in- fi- nite|love. *|||
w: deemed from their sor- row and|woe. *|Go|tell the glad tid- ings a-|
w: own their sal- va- tion to|thee. *|||
 d3- [Gd]2 G | [GB]>[GB][GB] [Gd][Fc][GB] | [FA]3- [FA]2 [FA] | [GB]>[GB][GB] ([GB][DA])[=FB] | %15
w: ||||
w: gain, And glad-|ly sing out the re- frain;|The * mes-|sage is true; what * more|
w: ||||
 [Ec]>[Ec][Ec] (cB)[EA] | [DG]D[DG] [DB]!fermata![DB][CA] | [B,G]3- [B,G]2 |] %18
w: |||
w: can we do Than * tell|the old sto- ry a- gain?||
w: |||
V:2
 D | x4 D x | x6 | x6 | x5 D | x6 | x6 | x6 | x5 || x | x6 | (G2 G G) x2 | x6 | x6 | x6 | x3 E2 x | %16
 x D x4 | x5 |] %18
V:3
 [G,B,] | [G,B,]>[G,B,][G,B,] [G,B,][G,B,][G,B,] | [D,D][D,D][D,C] [G,B,]2 [G,B,] | %3
 [G,D]>[G,D][G,D] [G,D][G,E][G,D] | [D,D]3- [D,D]2 [D,F,] | [D,F,]>[D,G,][D,A,] [D,C][D,B,][D,A,] | %6
 [D,A,][D,G,][D,F,] G,2 [B,,G,] | [C,G,][C,G,][C,C] [D,B,][D,B,][D,A,] | [G,,B,]3- [G,,B,]2 || %9
 [G,D] | [G,B,]>[G,B,][G,B,] [G,B,]G,[G,C] | ([G,B,]2 [G,B,] [G,B,]2) [G,B,] | %12
 [G,D]>[G,D][G,D] [B,D][A,D][G,D] | [D,D]2 [D,D] [D,D]2 [D,D] | [G,D]>[G,D][G,D] D2 G, | %15
 [C,G,]>[C,G,][C,G,] ([A,,A,][B,,^G,])[C,A,] | [D,B,][D,B,][D,B,] [D,G,]!fermata![D,G,][D,F,] | %17
 [G,,G,]3- [G,,G,]2 |] %18
V:4
 x | x6 | x6 | x6 | x6 | x6 | x3 G,2 x | x6 | x5 || x | x4 G, x | x6 | x6 | x6 | x3 (G,F,)G, | x6 | %16
 x6 | x5 |] %18

